!!!OTL: Hao dao ge
!!!ARE: Asia, China,ÿAnhui, Hexian
!! III, 575
!!!SCT: C1604
!!!YEM: Copyright 1995, estate of Helmut Schaffrath.
**kern
*ICvox
*Ivox
!! Mixed meters:  2/4; 1/4
*MZ
*k[b-e-a-]
*E-:
{8b-
16b-
16cc
16ee-
8cc
16b-
=1
8b-
16b-
16cc
16ee-
8.cc
=2
8b-
16g
16f
8b-
8cc
=3
8b-
16cc
16b-
16b-
8.g}
=4
{8g
16g
16f
8g
8b-
=5
16b-
16cc
16ff
16dd
8cc
8b-
=6
4g
=7
*M2/4
2g}
=8
{8b-
8cc
8cc
16b-
16cc
=9
8cc
8dd
8b-
8b-
=10
8cc
16ff
16dd
8cc
8b-
=11
16cc
8.g
8g
8f
=12
8.g
16b-
4r}
=13
{8ee-
16cc
16cc
8ee-
16cc
16g
=14
4b-
8cc
16cc
16b-
=15
8g
16g
16f
8e-
16b-
16g
=16
4.f
[8b-
=17
8b-]
8g
[4f
=18
2f]}
==
!!!AGN: Shange, Tiange
!!!AMT: irregular
!!!AIN: vox
!!!EED: Helmut Schaffrath
!!!EEV: 1.0
*-
!!!ONB: Tied note syntax fixed by Craig Sapp, 2004/05/03/
